X:59
T: Utca, utca, bánat utca
O: Onest (Bákó), 1929
Q: "Andante" 1/4=132
M:2/4
L:1/4
K:C
G/G/G/G/ | G/G/G | c2 | 
B/c/d/e/ | d/B/A | G2 | 
c2 | G2 | A/A/G/F/ | E/D/C | F2 | 
E/F/G/A/ | G/E/ D | C2 | 

